X:502
T:Kissing Thy Sweet Lips
M:C
L:1/8
B:O'Neill's 502
N:"Slow" "collected by J. O'Neill"
Z:Transcribed by Dave Wooldridge
K:D
D2|D3 E F2 dc|cB3 A GF2 DE|F3 G F2 ED|B,4 z2 A,B,|
D3 E F2 dc|BcBA GF2 DE|F2 AG F2 E2|D4 z2||
3ABc|d3 c BA B/2c/2d|e2 f2 A2 A/2B/2c|d3 c A2 G2|\
A2 Bc Hd2 dA G/2F/2E/2D/2 C/2D/2E/2F/2  G/2F/2E/2F/2 G/2A/2B/2c/2 d2|
B3 A A3 G|F3 D B,2 DE|F2 AG F2 FED|D4 z2||
